;FLAVOR:Marlin
;TIME:10756
;Filament used: 6.86215m
;Layer height: 0.2
;MINX:35.134
;MINY:39.904
;MINZ:0.2
;MAXX:195.543
;MAXY:174.11
;MAXZ:2
;Generated with Cura_SteamEngine 4.3.0
M140 S50
M105
M190 S50
M104 S200
M105
M109 S200
M82 ;absolute extrusion mode
M201 X500.00 Y500.00 Z100.00 E5000.00 ;Setup machine max acceleration
M203 X500.00 Y500.00 Z10.00 E50.00 ;Setup machine max feedrate
M204 P500.00 R1000.00 T500.00 ;Setup Print/Retract/Travel acceleration
M205 X8.00 Y8.00 Z0.40 E5.00 ;Setup Jerk
M220 S100 ;Reset Feedrate
M221 S100 ;Reset Flowrate

G28 ;Home

G92 E0 ;Reset Extruder
G1 Z2.0 F3000 ;Move Z Axis up
G1 X10.1 Y20 Z0.28 F5000.0 ;Move to start position
G1 X10.1 Y200.0 Z0.28 F1500.0 E15 ;Draw the first line
G1 X10.4 Y200.0 Z0.28 F5000.0 ;Move to side a little
G1 X10.4 Y20 Z0.28 F1500.0 E30 ;Draw the second line
G92 E0 ;Reset Extruder
G1 Z2.0 F3000 ;Move Z Axis up

G92 E0
G92 E0
G1 F2700 E-5
;LAYER_COUNT:10
;LAYER:0
M107
G0 F6000 X39.753 Y45.54 Z0.2
;TYPE:SKIRT
G1 F2700 E0
G1 F1200 X40.034 Y45.309 E0.0121
G1 X40.783 Y44.745 E0.04328
G1 X41.577 Y44.246 E0.07447
G1 X42.139 Y43.948 E0.09563
G1 X42.64 Y43.7 E0.11422
G1 X43.498 Y43.32 E0.14544
G1 X44.384 Y43.014 E0.17661
G1 X45.294 Y42.786 E0.20781
G1 X45.833 Y42.688 E0.22604
G1 X46.297 Y42.616 E0.24165
G1 X47.554 Y42.494 E0.28366
G1 X47.912 Y42.48 E0.29557
G1 X48.352 Y42.472 E0.31021
G1 X101.322 Y42.522 E2.072
G1 X101.486 Y42.523 E2.07746
G1 X102.318 Y42.536 E2.10513
G1 X104.882 Y42.54 E2.19041
G1 X107.412 Y42.471 E2.27459
G1 X109.894 Y42.334 E2.35727
G1 X112.441 Y42.121 E2.44228
G1 X114.933 Y41.84 E2.52569
G1 X117.418 Y41.49 E2.60915
G1 X119.876 Y41.072 E2.69208
G1 X122.395 Y40.571 E2.7775
G1 X124.139 Y40.18 E2.83695
G1 X125.062 Y40.014 E2.86814
G1 X126.21 Y39.919 E2.90645
G1 X126.538 Y39.909 E2.91737
G1 X126.873 Y39.904 E2.92851
G1 X183.836 Y39.904 E4.82311
G1 X183.994 Y39.905 E4.82836
G1 X184.692 Y39.915 E4.85158
G1 X185.628 Y39.969 E4.88277
G1 X186.556 Y40.101 E4.91394
G1 X187.47 Y40.313 E4.94515
G1 X188.362 Y40.602 E4.97633
G1 X189.227 Y40.965 E5.00753
G1 X190.057 Y41.401 E5.03872
G1 X190.848 Y41.906 E5.06993
G1 X191.592 Y42.477 E5.10112
G1 X192.285 Y43.109 E5.13232
G1 X192.922 Y43.797 E5.1635
G1 X193.497 Y44.538 E5.1947
G1 X194.008 Y45.324 E5.22588
G1 X194.45 Y46.152 E5.2571
G1 X194.819 Y47.014 E5.28829
G1 X195.114 Y47.904 E5.31947
G1 X195.332 Y48.816 E5.35066
G1 X195.472 Y49.744 E5.38187
G1 X195.53 Y50.605 E5.41058
G1 X195.539 Y50.925 E5.42122
G1 X195.543 Y51.234 E5.4315
G1 X195.543 Y160.168 E9.05466
G1 X195.542 Y160.32 E9.05972
G1 X195.532 Y161.043 E9.08377
G1 X195.479 Y161.98 E9.11498
G1 X195.347 Y162.908 E9.14616
G1 X195.135 Y163.822 E9.17736
G1 X194.847 Y164.714 E9.20854
G1 X194.484 Y165.579 E9.23974
G1 X194.049 Y166.41 E9.27094
G1 X193.544 Y167.2 E9.30212
G1 X192.974 Y167.945 E9.33332
G1 X192.342 Y168.638 E9.36452
G1 X191.654 Y169.275 E9.3957
G1 X190.914 Y169.851 E9.42689
G1 X190.127 Y170.362 E9.4581
G1 X189.3 Y170.804 E9.48929
G1 X188.438 Y171.174 E9.52049
G1 X187.548 Y171.47 E9.55168
G1 X186.636 Y171.688 E9.58287
G1 X185.709 Y171.828 E9.61405
G1 X184.98 Y171.882 E9.63837
G1 X184.66 Y171.895 E9.64902
G1 X184.213 Y171.904 E9.66389
G1 X127.25 Y171.904 E11.55849
G1 X127.096 Y171.903 E11.56361
G1 X125.38 Y171.879 E11.62069
G1 X125.232 Y171.876 E11.62561
G1 X124.4 Y171.853 E11.6533
G1 X121.88 Y171.855 E11.73711
G1 X119.394 Y171.928 E11.81983
G1 X116.862 Y172.074 E11.90419
G1 X114.326 Y172.292 E11.98884
G1 X111.867 Y172.574 E12.07117
G1 X109.369 Y172.931 E12.1551
G1 X106.856 Y173.365 E12.23992
G1 X104.622 Y173.81 E12.31568
G1 X104.1 Y173.901 E12.3333
G1 X103.652 Y173.968 E12.34837
G1 X102.647 Y174.071 E12.38197
G1 X102.329 Y174.089 E12.39256
G1 X101.827 Y174.106 E12.40927
G1 X101.551 Y174.109 E12.41845
G1 X101.42 Y174.11 E12.42281
G1 X48.592 Y174.059 E14.17987
G1 X48.438 Y174.058 E14.185
G1 X47.772 Y174.048 E14.20715
G1 X46.57 Y173.964 E14.24723
G1 X46.139 Y173.91 E14.26167
G1 X45.214 Y173.754 E14.29287
G1 X44.306 Y173.519 E14.32407
G1 X43.491 Y173.236 E14.35276
G1 X43.037 Y173.058 E14.36898
G1 X42.179 Y172.679 E14.40018
G1 X41.357 Y172.228 E14.43136
G1 X40.468 Y171.629 E14.46702
G1 X40.124 Y171.372 E14.4813
G1 X39.398 Y170.779 E14.51248
G1 X38.724 Y170.127 E14.54367
G1 X38.251 Y169.594 E14.56737
G1 X37.999 Y169.291 E14.58048
G1 X37.43 Y168.545 E14.61168
G1 X36.927 Y167.753 E14.64289
G1 X36.55 Y167.04 E14.66971
G1 X36.31 Y166.543 E14.68807
G1 X35.939 Y165.682 E14.71925
G1 X35.642 Y164.792 E14.75046
G1 X35.422 Y163.881 E14.78163
G1 X35.336 Y163.38 E14.79854
G1 X35.266 Y162.91 E14.81434
G1 X35.152 Y161.663 E14.85599
G1 X35.14 Y161.309 E14.86777
G1 X35.134 Y160.926 E14.88051
G1 X35.19 Y99.532 E16.92249
G1 X35.232 Y55.93 E18.37269
G1 X35.233 Y55.761 E18.37832
G1 X35.244 Y55.085 E18.4008
G1 X35.329 Y53.89 E18.44065
G1 X35.383 Y53.461 E18.45503
G1 X35.54 Y52.537 E18.4862
G1 X35.775 Y51.629 E18.5174
G1 X36.069 Y50.787 E18.54706
G1 X36.238 Y50.36 E18.56234
G1 X36.62 Y49.503 E18.59354
G1 X37.074 Y48.682 E18.62475
G1 X37.595 Y47.904 E18.65589
G1 X37.867 Y47.533 E18.67119
G1 X38.453 Y46.801 E18.70238
G1 X39.1 Y46.122 E18.73357
G1 X39.753 Y45.54 E18.76266
G0 F6000 X40.007 Y45.849
G1 F1200 X40.288 Y45.618 E18.77476
G1 X41.024 Y45.064 E18.8054
G1 X41.805 Y44.577 E18.83601
G1 X42.316 Y44.306 E18.85525
G1 X42.817 Y44.058 E18.87385
G1 X43.66 Y43.686 E18.90449
G1 X44.531 Y43.388 E18.93511
G1 X45.424 Y43.167 E18.96571
G1 X45.895 Y43.083 E18.98162
G1 X46.359 Y43.011 E18.99724
G1 X47.57 Y42.894 E19.0377
G1 X47.928 Y42.88 E19.04962
G1 X48.352 Y42.872 E19.06372
G1 X101.322 Y42.922 E20.82552
G1 X101.479 Y42.923 E20.83074
G1 X102.31 Y42.936 E20.85838
G1 X104.892 Y42.94 E20.94426
G1 X107.41 Y42.871 E21.02804
G1 X109.951 Y42.731 E21.11268
G1 X112.444 Y42.522 E21.19589
G1 X114.996 Y42.235 E21.2813
G1 X117.474 Y41.886 E21.36454
G1 X119.984 Y41.459 E21.44922
G1 X122.483 Y40.962 E21.53396
G1 X124.227 Y40.571 E21.59341
G1 X125.133 Y40.408 E21.62403
G1 X126.222 Y40.319 E21.66037
G1 X126.55 Y40.309 E21.67128
G1 X126.873 Y40.304 E21.68203
G1 X183.836 Y40.304 E23.57662
G1 X183.988 Y40.305 E23.58168
G1 X184.686 Y40.315 E23.6049
G1 X185.605 Y40.368 E23.63551
G1 X186.516 Y40.501 E23.66613
G1 X187.412 Y40.712 E23.69675
G1 X188.286 Y41 E23.72736
G1 X189.133 Y41.363 E23.75801
G1 X189.944 Y41.798 E23.78862
G1 X190.714 Y42.302 E23.81922
G1 X191.438 Y42.871 E23.84985
G1 X192.11 Y43.501 E23.88049
G1 X192.725 Y44.186 E23.91111
G1 X193.278 Y44.922 E23.94173
G1 X193.765 Y45.703 E23.97234
G1 X194.182 Y46.524 E24.00297
G1 X194.527 Y47.378 E24.0336
G1 X194.796 Y48.258 E24.06421
G1 X194.988 Y49.159 E24.09485
G1 X195.101 Y50.072 E24.12544
G1 X195.13 Y50.616 E24.14356
G1 X195.139 Y50.936 E24.15421
G1 X195.143 Y51.234 E24.16412
G1 X195.143 Y160.168 E27.78728
G1 X195.142 Y160.315 E27.79217
G1 X195.132 Y161.038 E27.81622
G1 X195.079 Y161.957 E27.84684
G1 X194.947 Y162.868 E27.87746
G1 X194.736 Y163.764 E27.90807
G1 X194.448 Y164.639 E27.93871
G1 X194.086 Y165.485 E27.96932
G1 X193.651 Y166.296 E27.99992
G1 X193.148 Y167.067 E28.03054
G1 X192.579 Y167.791 E28.06117
G1 X191.95 Y168.464 E28.09181
G1 X191.265 Y169.079 E28.12243
G1 X190.529 Y169.632 E28.15305
G1 X189.748 Y170.119 E28.18366
G1 X188.928 Y170.537 E28.21427
G1 X188.074 Y170.882 E28.24491
G1 X187.194 Y171.152 E28.27552
G1 X186.294 Y171.344 E28.30613
G1 X184.963 Y171.482 E28.35064
G1 X184.643 Y171.495 E28.36129
G1 X184.213 Y171.504 E28.37559
G1 X127.25 Y171.504 E30.27019
G1 X127.102 Y171.503 E30.27511
G1 X125.386 Y171.479 E30.33219
G1 X125.243 Y171.476 E30.33695
G1 X124.41 Y171.453 E30.36467
G1 X121.868 Y171.455 E30.44921
G1 X119.359 Y171.529 E30.5327
G1 X116.841 Y171.674 E30.61659
G1 X114.313 Y171.891 E30.70098
G1 X111.806 Y172.178 E30.78491
G1 X109.311 Y172.536 E30.86874
G1 X106.781 Y172.972 E30.95413
G1 X104.543 Y173.418 E31.03003
G1 X104.041 Y173.505 E31.04697
G1 X103.593 Y173.572 E31.06204
G1 X102.624 Y173.672 E31.09444
G1 X102.306 Y173.69 E31.10503
G1 X101.822 Y173.706 E31.12114
G1 X101.546 Y173.709 E31.13032
G1 X101.421 Y173.71 E31.13448
G1 X48.593 Y173.659 E32.89155
G1 X48.444 Y173.658 E32.8965
G1 X47.778 Y173.648 E32.91865
G1 X46.619 Y173.567 E32.9573
G1 X46.188 Y173.513 E32.97174
G1 X45.281 Y173.359 E33.00234
G1 X44.39 Y173.127 E33.03297
G1 X43.637 Y172.864 E33.05949
G1 X43.183 Y172.686 E33.07571
G1 X42.341 Y172.313 E33.10634
G1 X41.535 Y171.868 E33.13697
G1 X40.708 Y171.309 E33.17017
G1 X40.364 Y171.052 E33.18445
G1 X39.651 Y170.469 E33.21508
G1 X38.991 Y169.827 E33.24571
G1 X38.558 Y169.338 E33.26743
G1 X38.306 Y169.035 E33.28054
G1 X37.749 Y168.302 E33.31116
G1 X37.257 Y167.524 E33.34177
G1 X36.911 Y166.866 E33.3665
G1 X36.671 Y166.369 E33.38486
G1 X36.307 Y165.524 E33.41546
G1 X36.017 Y164.65 E33.44609
G1 X35.732 Y163.321 E33.49129
G1 X35.662 Y162.851 E33.5071
G1 X35.552 Y161.649 E33.54724
G1 X35.54 Y161.295 E33.55902
G1 X35.534 Y160.926 E33.5713
G1 X35.59 Y99.532 E35.61327
G1 X35.632 Y55.93 E37.06348
G1 X35.633 Y55.768 E37.06887
G1 X35.644 Y55.092 E37.09136
G1 X35.726 Y53.94 E37.12977
G1 X35.78 Y53.511 E37.14415
G1 X35.935 Y52.604 E37.17476
G1 X36.167 Y51.713 E37.20538
G1 X36.441 Y50.934 E37.23284
G1 X36.61 Y50.507 E37.24812
G1 X36.986 Y49.667 E37.27873
G1 X37.433 Y48.862 E37.30935
G1 X37.917 Y48.141 E37.33824
G1 X38.189 Y47.77 E37.35354
G1 X38.765 Y47.051 E37.38418
G1 X39.402 Y46.386 E37.41481
G1 X40.007 Y45.849 E37.44171
G0 F6000 X40.261 Y46.158
G1 F1200 X40.542 Y45.927 E37.45381
G1 X41.264 Y45.385 E37.48384
G1 X42.031 Y44.909 E37.51386
G1 X42.494 Y44.665 E37.53127
G1 X42.995 Y44.417 E37.54986
G1 X43.821 Y44.052 E37.5799
G1 X44.677 Y43.762 E37.60996
G1 X45.956 Y43.479 E37.65353
G1 X46.42 Y43.407 E37.66914
G1 X47.585 Y43.294 E37.70807
G1 X47.943 Y43.28 E37.71999
G1 X48.352 Y43.272 E37.7336
G1 X101.322 Y43.322 E39.49539
G1 X101.473 Y43.323 E39.50041
G1 X102.304 Y43.336 E39.52805
G1 X104.902 Y43.34 E39.61446
G1 X107.442 Y43.271 E39.69897
G1 X109.971 Y43.131 E39.78322
G1 X112.489 Y42.92 E39.86726
G1 X115.025 Y42.635 E39.95214
G1 X117.526 Y42.282 E40.03614
G1 X120.058 Y41.852 E40.12157
G1 X122.561 Y41.354 E40.20645
G1 X124.314 Y40.961 E40.2662
G1 X125.203 Y40.803 E40.29623
G1 X126.234 Y40.719 E40.33064
G1 X126.562 Y40.709 E40.34155
G1 X126.873 Y40.704 E40.3519
G1 X183.836 Y40.704 E42.24649
G1 X183.982 Y40.705 E42.25135
G1 X184.68 Y40.715 E42.27457
G1 X185.582 Y40.768 E42.30462
G1 X186.475 Y40.9 E42.33464
G1 X187.353 Y41.111 E42.36468
G1 X188.209 Y41.399 E42.39472
G1 X189.036 Y41.761 E42.42474
G1 X189.828 Y42.196 E42.4548
G1 X190.579 Y42.698 E42.48484
G1 X191.282 Y43.265 E42.51488
G1 X191.932 Y43.892 E42.54492
G1 X192.524 Y44.574 E42.57495
G1 X193.054 Y45.305 E42.60499
G1 X193.516 Y46.081 E42.63502
G1 X193.909 Y46.894 E42.66506
G1 X194.227 Y47.739 E42.69509
G1 X194.47 Y48.609 E42.72513
G1 X194.635 Y49.497 E42.75517
G1 X194.73 Y50.627 E42.79289
G1 X194.739 Y50.947 E42.80354
G1 X194.743 Y51.234 E42.81308
G1 X194.743 Y160.168 E46.43624
G1 X194.742 Y160.309 E46.44093
G1 X194.732 Y161.032 E46.46498
G1 X194.68 Y161.934 E46.49503
G1 X194.548 Y162.827 E46.52506
G1 X194.337 Y163.705 E46.55509
G1 X194.05 Y164.561 E46.58512
G1 X193.688 Y165.389 E46.61517
G1 X193.254 Y166.181 E46.64521
G1 X192.752 Y166.932 E46.67526
G1 X192.185 Y167.635 E46.7053
G1 X191.559 Y168.285 E46.73531
G1 X190.877 Y168.878 E46.76537
G1 X190.146 Y169.408 E46.7954
G1 X189.371 Y169.871 E46.82543
G1 X188.557 Y170.264 E46.85549
G1 X187.713 Y170.583 E46.8855
G1 X186.843 Y170.826 E46.91554
G1 X185.955 Y170.991 E46.94558
G1 X184.947 Y171.083 E46.97925
G1 X184.627 Y171.096 E46.9899
G1 X184.213 Y171.104 E47.00367
G1 X127.25 Y171.104 E48.89827
G1 X127.107 Y171.103 E48.90303
G1 X125.391 Y171.079 E48.96011
G1 X125.254 Y171.076 E48.96467
G1 X124.421 Y171.053 E48.99238
G1 X121.891 Y171.055 E49.07653
G1 X119.325 Y171.13 E49.16191
G1 X116.817 Y171.275 E49.24547
G1 X114.273 Y171.493 E49.33039
G1 X111.735 Y171.784 E49.41536
G1 X109.223 Y172.144 E49.49976
G1 X106.75 Y172.571 E49.58323
G1 X104.465 Y173.026 E49.66072
G1 X103.982 Y173.11 E49.67703
G1 X103.534 Y173.177 E49.6921
G1 X102.601 Y173.273 E49.72329
G1 X102.283 Y173.291 E49.73388
G1 X101.818 Y173.306 E49.74936
G1 X101.542 Y173.309 E49.75854
G1 X101.421 Y173.31 E49.76256
G1 X48.593 Y173.259 E51.51963
G1 X48.45 Y173.258 E51.52439
G1 X47.784 Y173.248 E51.54654
G1 X46.669 Y173.17 E51.58372
G1 X46.238 Y173.116 E51.59816
G1 X45.348 Y172.964 E51.62819
G1 X44.474 Y172.734 E51.65825
G1 X43.783 Y172.491 E51.68262
G1 X43.329 Y172.313 E51.69883
G1 X42.503 Y171.947 E51.72888
G1 X41.714 Y171.509 E51.7589
G1 X40.947 Y170.988 E51.78974
G1 X40.603 Y170.731 E51.80402
G1 X39.904 Y170.159 E51.83406
G1 X39.259 Y169.528 E51.86407
G1 X38.866 Y169.082 E51.88384
G1 X38.614 Y168.779 E51.89695
G1 X38.068 Y168.06 E51.92698
G1 X37.587 Y167.295 E51.95703
G1 X37.271 Y166.692 E51.97968
G1 X37.031 Y166.195 E51.99803
G1 X36.675 Y165.366 E52.02804
G1 X36.393 Y164.508 E52.05808
G1 X36.127 Y163.263 E52.10042
G1 X36.057 Y162.793 E52.11623
G1 X35.952 Y161.636 E52.15487
G1 X35.94 Y161.282 E52.16665
G1 X35.934 Y160.927 E52.17846
G1 X35.99 Y99.533 E54.22043
G1 X36.032 Y55.931 E55.67064
G1 X36.033 Y55.774 E55.67586
G1 X36.044 Y55.098 E55.69835
G1 X36.123 Y53.99 E55.7353
G1 X36.177 Y53.561 E55.74968
G1 X36.329 Y52.671 E55.77971
G1 X36.56 Y51.798 E55.80974
G1 X36.813 Y51.081 E55.83503
G1 X36.982 Y50.654 E55.8503
G1 X37.351 Y49.83 E55.88033
G1 X37.792 Y49.042 E55.91037
G1 X38.24 Y48.377 E55.93704
G1 X38.512 Y48.006 E55.95234
G1 X39.078 Y47.302 E55.98238
G1 X39.703 Y46.651 E56.0124
G1 X40.261 Y46.158 E56.03716
G1 F2700 E51.03716
;MESH:biscuit_2.stl
G0 F6000 X45.578 Y55.148
G0 X46.653 Y55.288
G0 X47.335 Y161.427
G0 X47.493 Y161.699
G0 X47.77 Y161.858
G0 X102.132 Y162.075
;TYPE:WALL-INNER
G1 F2700 E56.03716
G1 F1200 X101.858 Y162.11 E56.04635
G1 X47.991 Y162.058 E57.83797
G1 X47.723 Y162.024 E57.84696
G1 X47.532 Y161.944 E57.85385
G1 X47.373 Y161.822 E57.86051
G1 X47.244 Y161.653 E57.86758
G1 X47.169 Y161.472 E57.8741
G1 X47.133 Y161.196 E57.88336
G1 X47.19 Y99.542 E59.93398
G1 X47.233 Y55.332 E61.40441
G1 X47.269 Y55.058 E61.4136
G1 X47.348 Y54.867 E61.42048
G1 X47.467 Y54.713 E61.42695
G1 X47.638 Y54.582 E61.43411
G1 X47.819 Y54.507 E61.44063
G1 X48.095 Y54.471 E61.44989
G1 X101.96 Y54.523 E63.24145
G1 X102.234 Y54.558 E63.25063
G1 X102.423 Y54.636 E63.25743
G1 X102.583 Y54.76 E63.26417
G1 X102.708 Y54.922 E63.27097
G1 X102.783 Y55.107 E63.27761
G1 X102.82 Y55.385 E63.28694
G1 X102.763 Y117.038 E65.33753
G1 X102.72 Y161.25 E66.80803
G1 X102.686 Y161.52 E66.81708
G1 X102.606 Y161.71 E66.82393
G1 X102.482 Y161.872 E66.83072
G1 X102.318 Y161.997 E66.83758
G1 X102.132 Y162.075 E66.84429
G0 F6000 X102.235 Y162.465
G1 F1200 X101.885 Y162.51 E66.85602
G1 X47.964 Y162.458 E68.64944
G1 X47.618 Y162.414 E68.66104
G1 X47.33 Y162.293 E68.67143
G1 X47.087 Y162.107 E68.68161
G1 X46.896 Y161.857 E68.69208
G1 X46.778 Y161.573 E68.7023
G1 X46.733 Y161.224 E68.71401
G1 X46.79 Y99.542 E70.76556
G1 X46.833 Y55.303 E72.23696
G1 X46.879 Y54.954 E72.24867
G1 X46.997 Y54.669 E72.25892
G1 X47.031 Y54.625 E72.26077
G1 X47.184 Y54.425 E72.26915
G1 X47.434 Y54.234 E72.27961
G1 X47.718 Y54.116 E72.28984
G1 X48.067 Y54.071 E72.30155
G1 X101.988 Y54.123 E74.09497
G1 X102.338 Y54.168 E74.1067
G1 X102.624 Y54.286 E74.11699
G1 X102.869 Y54.475 E74.12729
G1 X103.057 Y54.72 E74.13756
G1 X103.174 Y55.006 E74.14783
G1 X103.22 Y55.356 E74.15958
G1 X103.163 Y117.038 E76.21113
G1 X103.12 Y161.278 E77.68256
G1 X103.076 Y161.623 E77.69412
G1 X102.955 Y161.913 E77.70458
G1 X102.767 Y162.158 E77.71485
G1 X102.521 Y162.346 E77.72515
G1 X102.235 Y162.465 E77.73545
G0 F6000 X102.337 Y162.855
;TYPE:WALL-OUTER
G1 F1200 X101.914 Y162.91 E77.74964
G1 X47.936 Y162.858 E79.54495
G1 X47.515 Y162.804 E79.55907
G1 X47.127 Y162.642 E79.57305
G1 X46.802 Y162.392 E79.58669
G1 X46.546 Y162.059 E79.60066
G1 X46.388 Y161.675 E79.61447
G1 X46.333 Y161.253 E79.62863
G1 X46.39 Y99.542 E81.68114
G1 X46.433 Y55.274 E83.1535
G1 X46.488 Y54.853 E83.16763
G1 X46.649 Y54.465 E83.1816
G1 X46.899 Y54.14 E83.19524
G1 X47.232 Y53.884 E83.20921
G1 X47.616 Y53.726 E83.22302
G1 X48.038 Y53.671 E83.23717
G1 X102.017 Y53.723 E85.03252
